X: 20173
T: Job-Hopper, The
R: reel
M: 4/4
K: Gmajor
.g2|:d2.B2 G2.g2|d2.B2 c2dc|BAGF GABG|1 A2D2 D2.g2:|2 A2D2 D2D2||
E2cB A2GA|B2D2 D2D2|E2cB ABcd|B2G2 G2D2|
EFGE FGAF|GABc d2gf|ecdB cABG|A2D2D2||

